T: Elliot Finn MacDonald
M: 4/4
L: 1/8
K: Dmaj
M: 2/4
|: d2 dA/B/ | dA f2 | g/f/e/d/ BA/B/ | d-d/f/ e/d/B/A/ |
d2 dA/B/ | dA f2 | g/f/e/d/ BA/B/ |[1 d2 d2 :|[2 d2 de/f/ ||
|: g2 ga/g/ | fe/d/ df/d/ | ec ca/e/ | fe/d/ de/f/ |
g2 ga/g/ | fe/d/ df/d/ | eA AB/A/ |[1 d2 de/f/ :|[2 d2 d2 |]
